X:1
T:Title
%%score { ( 1 3 ) | 2 }
L:1/8
Q:1/4=132
M:6/4
K:Eb
V:1 treble nm="Grand Piano"
V:3 treble 
V:2 bass 
V:1
 B4 c2 B4 G2 | [DA]4 D2 E6 | c4 B2 [Ge]4 G2 | z6 [DB]6 | B4 c2 B4 G2 | e4 c2 B6 | E6 G6 | %7
w: John~R.~Sweney * * *|||||||
 [DF]6 E6 | B6 G6 | [EA]6 [Ec]6 | [EB]6 [EG]6 | [EG]6 [DF]6 | [EG]6 [EB]6 | [Ec]6 [CEe]6 | %14
w: |||||||
 [G,E]6 [B,EG]6 | [A,DF]6 [G,E]6 |] %16
w: ||
V:2
 [E,G,E]4 [E,A,E]2 [E,G,E]4 [E,E]2 | [B,,F,]4 [B,,A,B,]2 [E,G,B,]6 | %2
 [E,A,E]4 [E,G,E]2 [E,B,]4 [E,B,E]2 | [D,B,]4 [C,=A,]2 .[B,,B,]6 | %4
 [E,G,E]4 [E,A,E]2 [E,G,E]4 [E,B,E]2 | [E,CE]4 [E,A,E]2 [E,G,E]6 | [E,G,]6 [E,B,E]6 | %7
 [B,,A,]6 [E,G,]6 | [E,G,E]6 [E,B,E]6 | [C,A,]6 [A,,A,]6 | [E,G,]6 [E,B,]6 | [B,,B,]6 [B,,B,]6 | %12
 [E,B,]6 [E,G,]6 | [A,,A,]6 A,,6 | B,,6 B,,6 | B,,6 E,6 |] %16
V:3
 x12 | x12 | x12 | F4 E2 z4 A,2 | x12 | x12 | x12 | x12 | x12 | x12 | x12 | x12 | x12 | x12 | x12 | %15
 x12 |] %16

